X:1
T:Loch of Lumgair
R:jig
D:Howie, Dave  & Mac
Z:Paul Stewart Cranford (P.S.C.), <http://www.cranfordpub.com>
L:1/8
M:6/8
Q:300
K:Bb
F|DFB dcB|({B}e3) G2 E|DFB Bcd|d3 c3|
DFB dcB|({B}e2) G cBG|Acf edc|B3 B2:|
|:b|fdB BFD|EGB ({B/c/d/}e2) c|dfd BAB|[1cAF Fde|
[1fdB BFD|EGB ({B/c/d/}e2) c|dfd ecA|B3 B2:|
[2cAF FEC|DFB dcB|({B}e2) G cBG|Acf edc|B3 B2|]
